src/resources/svg/tokens/susd.svg

<svg width="32" height="32" viewBox="0 0 32 32" xmlns="http://www.w3.org/2000/svg">
    <path d="m0 16c0 8.8366 7.1634 16 16 16 8.8366 0 16-7.1634 16-16 0-8.8366-7.1634-16-16-16-8.8366 0-16 7.1634-16 16z" fill="#1E1A31"/>
    <path d="m16.742 15.238c0.4341 0 0.786 0.3518 0.786 0.7859 0 0.434-0.3519 0.7859-0.786 0.7859h-2.0405c-1.9762 0-3.5783-1.6017-3.5783-3.5775s1.6021-3.5775 3.5783-3.5775h5.2622c0.4341 0 0.7861 0.35191 0.7861 0.78591 0 0.4341-0.352 0.7859-0.7861 0.7859h-5.2622c-1.1079 0-2.0061 0.898-2.0061 2.0057s0.8982 2.0057 2.0061 2.0057h2.0405z" clip-rule="evenodd" fill="#fff" fill-rule="evenodd"/>
    <path d="m15.131 16.81c-0.4341 0-0.7861-0.3519-0.7861-0.7859 0-0.4341 0.352-0.7859 0.7861-0.7859h2.0404c1.9763 0 3.5783 1.6017 3.5783 3.5775s-1.602 3.5775-3.5783 3.5775h-5.2621c-0.4342 0-0.7861-0.3519-0.7861-0.7859 0-0.4341 0.3519-0.786 0.7861-0.786h5.2621c1.108 0 2.0061-0.8979 2.0061-2.0056s-0.8981-2.0057-2.0061-2.0057h-2.0404z" clip-rule="evenodd" fill="#fff" fill-rule="evenodd"/>
    <path d="m12.53 22.076-1.2779-0.9156 8.0378-11.215 1.2779 0.91554-8.0378 11.215z" clip-rule="evenodd" fill="#fff" fill-opacity=".5" fill-rule="evenodd"/>
</svg>

<svg width="32" height="32" viewBox="0 0 32 32" fill="none" xmlns="http://www.w3.org/2000/svg">
    <path d="M0 16C0 24.8366 7.16344 32 16 32C24.8366 32 32 24.8366 32 16C32 7.16344 24.8366 0 16 0C7.16344 0 0 7.16344 0 16Z"
          fill="#1E1A31"/>
    <path fill-rule="evenodd" clip-rule="evenodd"
          d="M16.7418 15.238C17.1759 15.238 17.5278 15.5898 17.5278 16.0239C17.5278 16.4579 17.1759 16.8098 16.7418 16.8098H14.7013C12.7251 16.8098 11.123 15.2081 11.123 13.2323C11.123 11.2565 12.7251 9.65479 14.7013 9.65479H19.9635C20.3976 9.65479 20.7496 10.0067 20.7496 10.4407C20.7496 10.8748 20.3976 11.2266 19.9635 11.2266H14.7013C13.5934 11.2266 12.6952 12.1246 12.6952 13.2323C12.6952 14.34 13.5934 15.238 14.7013 15.238H16.7418Z"
          fill="white"/>
    <path fill-rule="evenodd" clip-rule="evenodd"
          d="M15.1308 16.8099C14.6967 16.8099 14.3447 16.458 14.3447 16.024C14.3447 15.5899 14.6967 15.2381 15.1308 15.2381H17.1712C19.1475 15.2381 20.7495 16.8398 20.7495 18.8156C20.7495 20.7914 19.1475 22.3931 17.1712 22.3931H11.9091C11.4749 22.3931 11.123 22.0412 11.123 21.6072C11.123 21.1731 11.4749 20.8212 11.9091 20.8212H17.1712C18.2792 20.8212 19.1773 19.9233 19.1773 18.8156C19.1773 17.7079 18.2792 16.8099 17.1712 16.8099H15.1308Z"
          fill="white"/>
    <path fill-rule="evenodd" clip-rule="evenodd"
          d="M12.5301 22.0759L11.2522 21.1603L19.29 9.94556L20.5679 10.8611L12.5301 22.0759Z" fill="white"
          fill-opacity="0.5"/>
</svg>
